X: 9448
T: Dans Plinn Of The Tune Police
R: reel
M: 4/4
K: Amixolydian
Ae ed cB cA|Bc d2 B2 cA|Bc d2 cB c>d|
ef ed cB cA|Bc d2 B2 cA|Bc d2 cB c2|:
A/B/c dc BA GA|Bf e2d2 cA|
cB dc BA GA|Bd de/d/ cB A2:|

